symbolic/64x64/apps/gitlab.svg

<svg xmlns="http://www.w3.org/2000/svg" width="64" height="64" version="1.1">
 <path style="opacity:0.2;fill-rule:evenodd" d="m 13.210227,5.99999 c -0.458263,0 -0.914849,0.25868 -1.08598,0.77344 L 5.4677377,27.000155 2.1121382,36.87499 c -0.1531808,0.46038 -0.14581,0.9444 0,1.38282 0.145088,0.43878 0.4272562,0.8327 0.8281573,1.11718 L 32.000021,60 61.059747,39.37499 c 0.400901,-0.28448 0.683069,-0.6784 0.828157,-1.11718 0.14578,-0.43842 0.1531,-0.92244 0,-1.38282 L 58.532305,27.000155 51.875797,6.77343 c -0.342262,-1.0295 -1.829537,-1.0295 -2.171963,0 L 43.047328,27.000155 H 20.952713 L 14.296207,6.77343 C 14.124995,6.25867 13.66849,5.99999 13.210227,5.99999 Z"/>
 <path style="fill:#fc6d26;fill-rule:evenodd" d="M 61.887866,35.87533 58.530527,25.999835 52.000005,16.36841 c -0.342248,-1.02934 -1.832899,-1.02934 -2.175309,0 l -6.777162,9.631425 H 20.952521 L 13.428573,16.36841 c -0.342247,-1.02934 -1.832899,-1.02934 -2.175309,0 L 5.4693649,25.999835 2.1121906,35.87533 c -0.3063498,0.92078 0.029238,1.92948 0.8308469,2.4986 L 31.999947,59 61.057017,38.37393 c 0.801609,-0.56912 1.137035,-1.57782 0.830849,-2.4986"/>
 <path style="fill:#d9381d;fill-rule:evenodd" d="m 13.210938,4.99999 c -0.458245,0 -0.914814,0.25868 -1.085937,0.77344 L 5.4687499,26.000455 H 20.953125 L 14.296876,5.77343 C 14.12567,5.25867 13.669183,4.99999 13.210938,4.99999 Z M 20.953125,26.000455 32.000003,59 43.04688,26.000455 Z m 22.093755,0 H 58.531255 L 51.875005,5.77343 c -0.342248,-1.0295 -1.829465,-1.0295 -2.171877,0 z"/>
 <path style="fill:#fca326;fill-rule:evenodd" d="M 5.4687499,26.000455 2.1132808,35.87499 c -0.3061873,0.92078 0.026354,1.93104 0.8281251,2.5 L 32.000003,59 Z M 32.000003,59 61.058599,38.37499 c 0.801771,-0.56896 1.134311,-1.57922 0.828125,-2.5 l -3.355469,-9.874535 z"/>
 <path style="opacity:0.2;fill:#ffffff;fill-rule:evenodd" d="M 13.210938,5 C 12.752693,5 12.296123,5.2586775 12.125,5.7734375 l -6.65625,20.2267275 -0.3789062,1 L 2.1113281,35.875 c -0.1313528,0.3948 -0.1379338,0.804022 -0.046875,1.189453 0.014957,-0.06337 0.026006,-0.126728 0.046875,-0.189453 L 5.46875,27.000165 H 20.953125 L 31.542969,58.675781 32,59 21.298828,27.000165 H 42.701172 L 32,59 32.457031,58.675781 43.046875,27.000165 H 58.53125 L 61.888672,36.875 c 0.02086,0.06273 0.03193,0.126084 0.04687,0.189453 0.09105,-0.385431 0.08441,-0.794653 -0.04687,-1.189453 l -2.978516,-8.874835 -0.378906,-1 L 51.875,5.7734375 c -0.342248,-1.0295 -1.829463,-1.0295 -2.171875,0 L 43.046875,26.000165 H 20.953125 L 14.296875,5.7734375 C 14.125669,5.2586775 13.669182,5 13.210938,5 Z m 0,1 c 0.458243,0 0.914731,0.2586775 1.085937,0.7734375 L 20.638672,26.000165 H 5.7832031 L 12.125,6.7734375 C 12.296123,6.2586775 12.752693,6 13.210938,6 Z m 37.578124,0.00195 c 0.457387,0 0.914814,0.2567344 1.085938,0.7714844 L 58.216797,26.000165 H 43.361328 L 49.703125,6.7734375 c 0.171206,-0.51475 0.628551,-0.7714844 1.085937,-0.7714844 z"/>
 <path style="opacity:0.2;fill:#ffffff;fill-rule:evenodd" d="M 5.46875,26.000165 2.1132812,35.875 c -0.1316111,0.395787 -0.1397803,0.806661 -0.048828,1.193359 0.015181,-0.06478 0.027515,-0.129265 0.048828,-0.193359 L 5.46875,27.000165 29.984375,57.570312 32,59 Z M 32,59 34.015625,57.570312 58.53125,27.000165 61.886719,36.875 c 0.02131,0.06409 0.03365,0.128577 0.04883,0.193359 0.09095,-0.386698 0.08278,-0.797572 -0.04883,-1.193359 L 58.53125,26.000165 Z"/>
</svg>

<svg xmlns="http://www.w3.org/2000/svg" width="64" height="64"><path style="opacity:.2;fill-rule:evenodd" d="M13.21 6a1.12 1.12 0 0 0-1.086.773L5.468 27l-3.356 9.875c-.153.46-.146.944 0 1.383.145.439.427.833.828 1.117L32 60l29.06-20.625c.4-.284.683-.678.828-1.117a2.188 2.188 0 0 0 0-1.383L58.532 27 51.876 6.773c-.342-1.03-1.83-1.03-2.172 0L43.047 27H20.953L14.296 6.773A1.12 1.12 0 0 0 13.21 6z"/><path style="fill:#fc6d26;fill-rule:evenodd" d="M61.888 35.875 58.53 26 52 16.368c-.342-1.029-1.833-1.029-2.175 0L43.048 26H20.953l-7.524-9.632c-.343-1.029-1.833-1.029-2.176 0L5.47 26l-3.357 9.875c-.306.921.03 1.93.831 2.499L32 59l29.057-20.626a2.206 2.206 0 0 0 .83-2.499"/><path style="fill:#d9381d;fill-rule:evenodd" d="M13.21 5a1.12 1.12 0 0 0-1.085.773L5.469 26h15.484L14.297 5.773A1.12 1.12 0 0 0 13.21 5zm7.743 21L32 59l11.047-33zm22.094 0H58.53L51.875 5.773c-.342-1.03-1.83-1.03-2.172 0z"/><path style="fill:#fca326;fill-rule:evenodd" d="m5.469 26-3.356 9.875c-.306.92.027 1.931.828 2.5L32 59zM32 59l29.059-20.625a2.207 2.207 0 0 0 .828-2.5L58.53 26z"/><path style="opacity:.2;fill:#fff;fill-rule:evenodd" d="M13.21 5a1.12 1.12 0 0 0-1.085.773L5.469 26l-.38 1-2.978 8.875a2.17 2.17 0 0 0-.047 1.19c.015-.064.026-.127.047-.19L5.47 27h15.484l10.59 31.676L32 59 21.299 27H42.7L32 59l.457-.324L43.047 27H58.53l3.358 9.875c.02.063.032.126.047.19a2.171 2.171 0 0 0-.047-1.19L58.91 27l-.379-1-6.656-20.227c-.342-1.03-1.83-1.03-2.172 0L43.047 26H20.953L14.297 5.773A1.12 1.12 0 0 0 13.21 5zm0 1c.46 0 .916.259 1.087.773L20.639 26H5.783l6.342-19.227A1.12 1.12 0 0 1 13.211 6zm37.58.002c.456 0 .914.257 1.085.771L58.217 26H43.36l6.342-19.227c.171-.514.629-.771 1.086-.771z"/><path style="opacity:.2;fill:#fff;fill-rule:evenodd" d="m5.469 26-3.356 9.875c-.131.396-.14.807-.049 1.193.016-.064.028-.129.05-.193L5.468 27l24.515 30.57L32 59zM32 59l2.016-1.43L58.53 27l3.356 9.875c.021.064.033.129.049.193a2.183 2.183 0 0 0-.05-1.193L58.532 26z"/></svg>
